arkscan/icons/blofin.svg

<svg width="200" height="201" viewBox="0 0 200 201" fill="none" xmlns="http://www.w3.org/2000/svg">
<path d="M109.621 111.914L130.455 98.6886C147.572 106.177 151.96 121.384 151.96 138.15V139.165C151.96 152.686 151.96 163.69 148.483 174.327C141.355 196.103 122.655 200.658 99.872 200.754H48V151.032L77.3603 132.396V176.916C79.7257 176.852 82.3469 176.86 85.0879 176.876C90.4022 176.908 96.18 176.94 101.43 176.357C119.355 174.391 118.979 156.282 118.748 144.951C118.721 143.747 118.705 142.636 118.7 141.618V140.923C118.7 131.293 118.708 117.556 109.621 111.914ZM77.3603 25.1201C78.3193 25.176 79.8696 25.0561 81.8035 24.8963C89.2355 24.297 102.341 23.2501 109.278 30.6261C116.063 37.8503 115.895 48.6866 115.783 55.8629C115.74 57.4558 115.74 58.833 115.783 59.9944C115.783 62.9512 115.535 65.5404 115.064 67.834L147.572 47.2082C147.572 27.4056 144.336 0.754395 90.0346 0.754395H48V110.412L77.3603 91.7681V25.1201Z" fill="black"/>
<path d="M48 110.413V151.041L125.452 101.878C139.118 93.2076 147.533 77.1769 147.533 59.8276V47.2412L48 110.413Z" fill="#FF8800"/>
</svg>

<svg width="200" height="201" fill="none" xmlns="http://www.w3.org/2000/svg"><path d="m109.621 111.914 20.834-13.225c17.117 7.488 21.505 22.695 21.505 39.461v1.015c0 13.521 0 24.525-3.477 35.162-7.128 21.776-25.828 26.331-48.611 26.427H48v-49.722l29.36-18.636v44.52c2.366-.064 4.987-.056 7.728-.04 5.314.032 11.092.064 16.342-.519 17.925-1.966 17.549-20.075 17.318-31.406a191.378 191.378 0 0 1-.048-3.333v-.695c0-9.63.008-23.367-9.079-29.009ZM77.361 25.12c.958.056 2.509-.064 4.442-.224 7.433-.599 20.538-1.646 27.475 5.73 6.785 7.224 6.617 18.06 6.505 25.237a65.77 65.77 0 0 0 0 4.131c0 2.957-.248 5.546-.719 7.84l32.508-20.626c0-19.802-3.236-46.454-57.537-46.454H48v109.658l29.36-18.644V25.12Z" fill="#000"/><path d="M48 110.413v40.628l77.452-49.163c13.666-8.67 22.081-24.701 22.081-42.05V47.24L48 110.413Z" fill="#F80"/></svg>
